X:1
T:Title
L:1/8
M:4/4
I:linebreak $
K:A
V:1 treble nm="Voice"
V:1
"A" cBcd ecAB | c3 d ecAc |"E" BBGB EGBc | dcBd"A" cA A2 |1"A" cBcd ecAB | c3 d ecAc | %6
"E" BABc dBGE |"A" Ac"E"BG"A" A4 :|2"A" cBcd ecAe |"D" f3 g af"A"ec |"E" B2 Bc dBGE | %11
"A" Ac"E"BG"A" A2 GA |:"D" F2 FG AGAB | A2 AG FGAF |"E" GGEG CEGA | BAGB"D" AGFE |1"D" F2 FG AGAB | %17
 A2 AG FGAF |"E" GABc dBGE |"A" Ac"E"BG"A" A2 GA :|2"D" F2 FG AGAB |"A" c2 cd cBAc |"E" BABc dBGE | %23
"A" Ac"E"BG"A" A4 |] %24
